source/images/icon-automate.svg

<?xml version="1.0" encoding="UTF-8"?>
<svg width="65px" height="65px" viewBox="0 0 65 65" version="1.1" xmlns="http://www.w3.org/2000/svg" xmlns:xlink="http://www.w3.org/1999/xlink">
    <!-- Generator: Sketch 41.1 (35376) - https://www.sketchapp.com -->
    <title>icon-automate</title>
    <desc>Created with Sketch.</desc>
    <defs></defs>
    <g id="Updated-HOME" stroke="none" stroke-width="1" fill="none" fill-rule="evenodd">
        <g id="home-updated" transform="translate(-552.000000, -636.000000)" fill="#1794C7">
            <g id="Automate" transform="translate(532.000000, 600.000000)">
                <g id="icon-automate" transform="translate(20.000000, 36.000000)">
                    <path d="M63.774,29.6049 L35.394,1.2259 C33.761,-0.4091 31.11,-0.4091 29.474,1.2259 L23.582,7.1199 L31.057,14.5949 C32.795,14.0089 34.786,14.4019 36.171,15.7869 C37.563,17.1799 37.954,19.1889 37.352,20.9329 L44.557,28.1379 C46.3,27.5369 48.311,27.9249 49.703,29.3199 C51.649,31.2649 51.649,34.4169 49.703,36.3629 C47.757,38.3099 44.605,38.3099 42.658,36.3629 C41.194,34.8989 40.833,32.7489 41.574,30.9459 L34.854,24.2269 L34.854,41.9089 C35.328,42.1439 35.776,42.4569 36.171,42.8509 C38.117,44.7959 38.117,47.9479 36.171,49.8959 C34.225,51.8409 31.071,51.8409 29.128,49.8959 C27.182,47.9479 27.182,44.7959 29.128,42.8509 C29.609,42.3709 30.165,42.0079 30.758,41.7639 L30.758,23.9179 C30.165,23.6749 29.609,23.3139 29.128,22.8309 C27.654,21.3579 27.299,19.1949 28.055,17.3859 L20.686,10.0149 L1.226,29.4739 C-0.409,31.1099 -0.409,33.7609 1.226,35.3949 L29.606,63.7739 C31.24,65.4089 33.89,65.4089 35.526,63.7739 L63.774,35.5269 C65.409,33.8909 65.409,31.2399 63.774,29.6049" id="Fill-1"></path>
                </g>
            </g>
        </g>
    </g>
</svg>

<svg height="65" viewBox="0 0 65 65" width="65" xmlns="http://www.w3.org/2000/svg"><path d="m63.774 29.6049-28.38-28.379c-1.633-1.635-4.284-1.635-5.92 0l-5.892 5.894 7.475 7.475c1.738-.586 3.729-.193 5.114 1.192 1.392 1.393 1.783 3.402 1.181 5.146l7.205 7.205c1.743-.601 3.754-.213 5.146 1.182 1.946 1.945 1.946 5.097 0 7.043-1.946 1.947-5.098 1.947-7.045 0-1.464-1.464-1.825-3.614-1.084-5.417l-6.72-6.719v17.682c.474.235.922.548 1.317.942 1.946 1.945 1.946 5.097 0 7.045-1.946 1.945-5.1 1.945-7.043 0-1.946-1.948-1.946-5.1 0-7.045.481-.48 1.037-.843 1.63-1.087v-17.846c-.593-.243-1.149-.604-1.63-1.087-1.474-1.473-1.829-3.636-1.073-5.445l-7.369-7.371-19.46 19.459c-1.635 1.636-1.635 4.287 0 5.921l28.38 28.379c1.634 1.635 4.284 1.635 5.92 0l28.248-28.247c1.635-1.636 1.635-4.287 0-5.922" fill="#1794c7" fill-rule="evenodd"/></svg>
